X: 1290
T: Cunningham's Fancy
R:Reel
N:Collected by Tuohy
B:O'Neill's 1290
Z:Transcribed by Trish O'Neil
M:C|
L:1/8
K:Ador
(BA)|.G(E {F}(3ED)E cdef|gedB (cA) Az|.G(E {F}(3EDE) cdef|gedBc2:|
(cd)|e(f {a}(3g)fg eaaf|gedB (cA)A2|e(f {a}(3g)fg eaab|c'baga2(gf)|
e(f {a}(3g)fg eaaf|gedB cAA2|G(E {F}(3EDE) cdef|gedBc2(cd)|
e(f {a}(3g)fg eaaf|gedB (cA)A2|e(f {a}(3g)fg eaab|c'baga2ab|
(3c'ba bg agef|gedB (cA)A2|G(E {F}(3EDE) cdef|gedBc2|]


